UI/Data/SVG/pipeline_outline_24px.svg

<svg width="24" height="24" viewBox="0 0 24 24" fill="none" xmlns="http://www.w3.org/2000/svg">
<path d="M22 5.78C22.0097 5.68692 22.0097 5.59308 22 5.5C22 3.57 17.52 2 12 2C6.47995 2 1.99995 3.57 1.99995 5.5C1.99025 5.59308 1.99025 5.68692 1.99995 5.78C2.05633 6.00507 2.15845 6.21612 2.29995 6.4L8.44995 14.4C8.79893 14.7673 8.9955 15.2534 8.99995 15.76V22H15V15.76C15.001 15.2691 15.1825 14.7957 15.51 14.43C15.51 14.43 21.62 6.43 21.73 6.29C21.8494 6.13729 21.9408 5.96462 22 5.78ZM19.72 5.5C18.74 6.14 16.05 7 12 7C7.94995 7 5.25995 6.14 4.27995 5.5C5.25995 4.86 7.99995 4 12 4C16 4 18.74 4.86 19.72 5.5ZM14 13.17C13.3681 13.8863 13.0134 14.805 13 15.76V20H11V15.76C11.0004 14.8113 10.6637 13.8934 10.05 13.17L6.44995 8.41C8.27185 8.81496 10.1336 9.01288 12 9C13.8663 9.01288 15.7281 8.81496 17.55 8.41L14 13.17Z" fill="#0F1621"/>
</svg>

<svg xmlns="http://www.w3.org/2000/svg" width="24" height="24" viewBox="0 0 24 24"><rect width="24" height="24" style="fill:none"/><path d="M22,5.78a1.35,1.35,0,0,0,0-.28C22,3.57,17.52,2,12,2S2,3.57,2,5.5a1.35,1.35,0,0,0,0,.28,1.69,1.69,0,0,0,.3.62l6.15,8A2,2,0,0,1,9,15.76V22h6V15.76a2,2,0,0,1,.51-1.33s6.11-8,6.22-8.14A1.64,1.64,0,0,0,22,5.78ZM19.72,5.5C18.74,6.14,16.05,7,12,7S5.26,6.14,4.28,5.5C5.26,4.86,8,4,12,4S18.74,4.86,19.72,5.5ZM14,13.17A4,4,0,0,0,13,15.76V20H11V15.76a4,4,0,0,0-.95-2.59L6.45,8.41A24.79,24.79,0,0,0,12,9a24.79,24.79,0,0,0,5.55-.59Z"/></svg>
